src/assets/img/providers-white/apparat.svg

<svg width="120" height="24" viewBox="0 0 120 24" fill="none" xmlns="http://www.w3.org/2000/svg">
<g clip-path="url(#clip0_4132_8221)">
<path fill-rule="evenodd" clip-rule="evenodd" d="M10.5683 3.02027L0.76136 3.02337C0.753956 3.0233 0.746664 3.02154 0.740044 3.01823C0.733423 3.01491 0.727648 3.01013 0.723157 3.00424C0.718667 2.99835 0.71558 2.99152 0.714133 2.98425C0.712686 2.97699 0.712918 2.9695 0.714808 2.96234L1.44205 0.0792346C1.44481 0.068761 1.451 0.0595104 1.45962 0.0529511C1.46824 0.0463918 1.4788 0.0428996 1.48964 0.0430279L13.3065 0.0419932C13.3175 0.041922 13.3282 0.0455626 13.3368 0.0523237C13.3455 0.0590848 13.3516 0.068569 13.3541 0.0792346L17.8179 17.9489C17.8196 17.956 17.8197 17.9634 17.8182 17.9705C17.8166 17.9776 17.8135 17.9843 17.8091 17.9901C17.8046 17.9958 17.7989 18.0005 17.7924 18.0038C17.7858 18.007 17.7787 18.0088 17.7714 18.0089H14.1041C14.0933 18.0087 14.0829 18.005 14.0745 17.9982C14.066 17.9915 14.0601 17.9821 14.0576 17.9716L13.2114 14.3396C13.2088 14.3291 13.2029 14.3197 13.1945 14.313C13.186 14.3062 13.1756 14.3025 13.1648 14.3023L5.2955 14.3034C5.28471 14.3035 5.27427 14.3073 5.26584 14.314C5.25742 14.3208 5.25147 14.3301 5.24895 14.3406L4.41205 17.9727C4.40952 17.9832 4.40358 17.9925 4.39515 17.9993C4.38672 18.006 4.37629 18.0098 4.3655 18.0099L0.76136 18.012C0.753956 18.0119 0.746664 18.0102 0.740044 18.0068C0.733423 18.0035 0.727648 17.9987 0.723157 17.9929C0.718667 17.987 0.71558 17.9801 0.714133 17.9729C0.712686 17.9656 0.712918 17.9581 0.714808 17.951L3.90515 5.32613C3.90792 5.31566 3.9141 5.3064 3.92272 5.29985C3.93134 5.29329 3.94191 5.28979 3.95274 5.28992L7.26722 5.28475C7.2746 5.2847 7.2819 5.28633 7.28855 5.28952C7.29521 5.29271 7.30105 5.29738 7.30563 5.30316C7.31022 5.30894 7.31343 5.31569 7.31502 5.32289C7.31661 5.3301 7.31654 5.33758 7.31481 5.34475L5.95239 11.2641C5.95067 11.2712 5.9506 11.2787 5.95219 11.2859C5.95378 11.2931 5.95698 11.2999 5.96157 11.3057C5.96616 11.3114 5.972 11.3161 5.97865 11.3193C5.98531 11.3225 5.9926 11.3241 5.99998 11.3241L12.4645 11.323C12.4718 11.3231 12.4791 11.3214 12.4858 11.3183C12.4924 11.3151 12.4983 11.3104 12.5029 11.3046C12.5075 11.2988 12.5107 11.2921 12.5123 11.2849C12.5139 11.2777 12.5138 11.2702 12.5121 11.263L10.6148 3.05751C10.6123 3.04702 10.6063 3.03766 10.5979 3.03092C10.5895 3.02417 10.5791 3.02043 10.5683 3.02027ZM113.388 7.26367C113.39 9.11471 113.392 10.9402 113.393 12.7402C113.393 13.6319 113.551 14.6282 114.458 14.9944C114.755 15.1144 115.228 15.1699 115.878 15.1609C116.766 15.1485 117.646 15.1516 118.517 15.1702C118.559 15.1716 118.58 15.1933 118.58 15.2354L118.579 17.953C118.578 17.9654 118.573 17.9773 118.565 17.986C118.556 17.9947 118.544 17.9995 118.532 17.9995C117.266 18.0126 116.001 18.0157 114.738 18.0088C111.813 17.9944 110.038 16.2668 110.029 13.2895C110.023 11.2764 110.025 9.2685 110.034 7.26574C110.034 7.24681 110.026 7.22865 110.013 7.21527C109.999 7.20188 109.981 7.19436 109.962 7.19436L107.515 7.19333C107.502 7.19333 107.49 7.1882 107.48 7.17909C107.471 7.16997 107.466 7.1576 107.466 7.14471L107.47 4.47367C107.47 4.43022 107.492 4.4085 107.536 4.4085L109.997 4.40643C110.022 4.40651 110.047 4.39811 110.067 4.38255C110.087 4.36699 110.101 4.34517 110.107 4.32057L110.998 0.665741C111.006 0.633327 111.026 0.61712 111.059 0.61712L113.332 0.620223C113.37 0.620223 113.389 0.639189 113.39 0.67712L113.392 4.32057C113.392 4.33171 113.394 4.34274 113.398 4.35303C113.402 4.36332 113.409 4.37267 113.417 4.38055C113.424 4.38843 113.434 4.39468 113.444 4.39894C113.454 4.4032 113.465 4.4054 113.477 4.4054L119.225 4.40643C119.234 4.40649 119.242 4.40848 119.25 4.41225C119.257 4.41602 119.264 4.42146 119.269 4.42816C119.275 4.43486 119.278 4.44263 119.28 4.45088C119.281 4.45913 119.281 4.46764 119.279 4.47574L118.595 7.12505C118.59 7.14483 118.579 7.16237 118.563 7.17492C118.546 7.18747 118.527 7.19431 118.506 7.19436H113.457C113.411 7.19436 113.388 7.21747 113.388 7.26367ZM25.4979 16.3465C25.4979 16.2679 25.5245 16.2579 25.5776 16.3165C26.7341 17.6048 28.19 18.2782 29.9452 18.3368C32.6058 18.4248 34.9955 17.0696 36.1934 14.6861C37.7896 11.5123 37.0283 7.07544 33.841 5.08096C32.6465 4.33337 31.3358 3.99441 29.9089 4.06406C28.0503 4.1551 26.5538 4.90337 25.4193 6.30889C25.4141 6.31514 25.4073 6.31978 25.3996 6.32227C25.3919 6.32475 25.3836 6.32497 25.3758 6.3229C25.3679 6.32083 25.3608 6.31656 25.3554 6.3106C25.3499 6.30463 25.3462 6.29722 25.3448 6.28924L25.0127 4.48717C25.0024 4.4313 24.9686 4.40337 24.9114 4.40337L19.6355 4.40958C19.5969 4.40958 19.5776 4.42924 19.5776 4.46855L19.5755 6.95648C19.5755 6.97105 19.5809 6.98507 19.5907 6.99565C19.6005 7.00624 19.614 7.01258 19.6283 7.01337L22.0914 7.17889C22.102 7.17968 22.112 7.18438 22.1193 7.19206C22.1266 7.19973 22.1307 7.20981 22.1307 7.22027L22.1317 21.0565C22.1317 21.1068 22.1065 21.1334 22.0562 21.1361L19.7296 21.2923C19.7153 21.2934 19.7018 21.2998 19.692 21.3104C19.6823 21.321 19.6768 21.3348 19.6769 21.3492L19.6748 23.8517C19.6748 23.8601 19.6765 23.8684 19.6797 23.8762C19.6829 23.884 19.6876 23.891 19.6936 23.897C19.6995 23.903 19.7066 23.9077 19.7144 23.9109C19.7222 23.9141 19.7305 23.9158 19.7389 23.9158L30.4127 23.9075C30.4212 23.9075 30.4294 23.9041 30.4354 23.8981C30.4414 23.8921 30.4448 23.884 30.4448 23.8754L30.4458 21.3358C30.4459 21.325 30.4417 21.3146 30.4344 21.3069C30.4271 21.2992 30.4171 21.2947 30.4065 21.2944L25.5579 21.1206C25.5418 21.1201 25.5266 21.1133 25.5154 21.1017C25.5042 21.0901 25.4979 21.0747 25.4979 21.0585V16.3465ZM31.1667 15.0913C30.6706 15.3048 30.1386 15.4156 29.6009 15.4175C29.0632 15.4194 28.5304 15.3122 28.0329 15.1022C27.5354 14.8922 27.0829 14.5834 26.7014 14.1935C26.3198 13.8036 26.0166 13.3402 25.809 12.8297C25.6015 12.3192 25.4937 11.7717 25.4917 11.2184C25.4898 10.665 25.5938 10.1168 25.7978 9.60486C26.0017 9.09295 26.3017 8.62741 26.6806 8.23483C27.0594 7.84225 27.5097 7.53031 28.0057 7.31683C28.5017 7.10336 29.0338 6.99251 29.5715 6.99064C30.1092 6.98876 30.642 7.09588 31.1395 7.30589C31.637 7.5159 32.0894 7.82468 32.471 8.21461C32.8526 8.60454 33.1558 9.06797 33.3633 9.57845C33.5709 10.0889 33.6787 10.6365 33.6806 11.1898C33.6826 11.7431 33.5786 12.2914 33.3746 12.8033C33.1706 13.3152 32.8707 13.7807 32.4918 14.1733C32.113 14.5659 31.6627 14.8778 31.1667 15.0913ZM43.6686 16.273C43.6307 16.2289 43.6117 16.2358 43.6117 16.2937V21.0461C43.6117 21.0655 43.6192 21.0841 43.6325 21.098C43.6458 21.112 43.664 21.12 43.6831 21.1206L48.5307 21.2944C48.5396 21.2946 48.548 21.2985 48.5542 21.305C48.5603 21.3116 48.5638 21.3204 48.5638 21.3295L48.5648 23.8795C48.5648 23.8889 48.5611 23.8978 48.5545 23.9044C48.5479 23.911 48.539 23.9147 48.5297 23.9147L37.8434 23.9116C37.8281 23.9116 37.8133 23.9054 37.8025 23.8943C37.7916 23.8833 37.7855 23.8683 37.7855 23.8526V21.3595C37.7855 21.3427 37.7918 21.3264 37.8031 21.3141C37.8144 21.3018 37.83 21.2944 37.8465 21.2933L40.2155 21.133C40.2295 21.1322 40.2427 21.1261 40.2523 21.1159C40.2619 21.1057 40.2673 21.0922 40.2672 21.0782L40.2683 4.45299C40.2683 4.42196 40.2838 4.40644 40.3148 4.40644H43.0562C43.1003 4.40644 43.1265 4.42817 43.1348 4.47162L43.4669 6.30472C43.4681 6.31062 43.4709 6.31607 43.475 6.32045C43.4792 6.32482 43.4845 6.32795 43.4903 6.32946C43.4961 6.33097 43.5023 6.33081 43.508 6.32899C43.5137 6.32718 43.5188 6.32379 43.5228 6.3192C44.6959 4.90127 46.1879 4.15093 47.999 4.06817C49.8148 3.98541 51.3765 4.50231 52.6841 5.61886C55.6821 8.17713 55.9334 13.2027 53.3286 16.1364C50.8231 18.9595 46.1783 19.1695 43.6686 16.273ZM47.7199 15.4175C48.2576 15.4156 48.7896 15.3047 49.2856 15.0913C49.7817 14.8778 50.232 14.5658 50.6108 14.1733C50.9896 13.7807 51.2896 13.3151 51.4936 12.8032C51.6976 12.2913 51.8016 11.743 51.7996 11.1897C51.7977 10.6364 51.6899 10.0889 51.4823 9.57841C51.2748 9.06793 50.9716 8.6045 50.59 8.21458C50.2084 7.82465 49.756 7.51587 49.2585 7.30586C48.761 7.09585 48.2281 6.98872 47.6905 6.9906C47.1528 6.99248 46.6207 7.10332 46.1247 7.3168C45.6287 7.53028 45.1784 7.84221 44.7995 8.23479C44.4207 8.62737 44.1207 9.09291 43.9168 9.60483C43.7128 10.1167 43.6088 10.665 43.6107 11.2183C43.6126 11.7716 43.7205 12.3192 43.928 12.8296C44.1356 13.3401 44.4388 13.8036 44.8203 14.1935C45.2019 14.5834 45.6544 14.8922 46.1519 15.1022C46.6494 15.3122 47.1822 15.4193 47.7199 15.4175ZM69.4521 4.48608L69.1386 6.2685C69.1276 6.33263 69.1007 6.34057 69.0579 6.29229C69.0121 6.24048 68.9677 6.1853 68.9233 6.13005L68.9232 6.13001L68.9231 6.1299L68.9231 6.12985C68.8602 6.05169 68.7972 5.97342 68.73 5.90436C67.4155 4.56091 65.7817 3.94988 63.8286 4.07126C60.9486 4.25126 58.6283 6.14126 57.809 8.90436C57.2193 10.8906 57.4128 13.2668 58.4741 15.0637C59.9079 17.4895 62.5872 18.7102 65.3586 18.2551C66.8579 18.0082 68.0986 17.2823 69.0807 16.0775C69.0838 16.0736 69.0879 16.0708 69.0926 16.0692C69.0973 16.0676 69.1023 16.0674 69.1071 16.0686C69.1119 16.0698 69.1162 16.0724 69.1196 16.0759C69.123 16.0795 69.1253 16.084 69.1262 16.0888L69.4552 17.9426C69.4628 17.9875 69.4893 18.0099 69.5348 18.0099H72.2772C72.3131 18.0099 72.331 17.9919 72.331 17.9561L72.329 4.47884C72.329 4.4347 72.3069 4.41263 72.2627 4.41263L69.5493 4.40332C69.5262 4.40328 69.5038 4.41156 69.486 4.42669C69.4682 4.44183 69.4562 4.46286 69.4521 4.48608ZM66.4698 15.0922C65.9737 15.3057 65.4415 15.4166 64.9037 15.4185C64.3658 15.4204 63.8329 15.3132 63.3353 15.1031C62.8376 14.8931 62.3851 14.5842 62.0034 14.1942C61.6217 13.8042 61.3185 13.3406 61.1108 12.83C60.9032 12.3194 60.7954 11.7718 60.7935 11.2183C60.7915 10.6649 60.8955 10.1165 61.0996 9.60442C61.3036 9.09238 61.6037 8.62673 61.9826 8.23405C62.3615 7.84137 62.8119 7.52936 63.3081 7.31583C63.8042 7.1023 64.3364 6.99143 64.8742 6.98955C65.4121 6.98767 65.945 7.09483 66.4426 7.30489C66.9403 7.51495 67.3928 7.82381 67.7745 8.21383C68.1562 8.60385 68.4595 9.0674 68.6671 9.578C68.8747 10.0886 68.9825 10.6363 68.9845 11.1897C68.9864 11.7432 68.8824 12.2916 68.6783 12.8036C68.4743 13.3157 68.1743 13.7813 67.7953 14.174C67.4164 14.5667 66.966 14.8787 66.4698 15.0922ZM101.29 6.2985C101.295 6.30424 101.301 6.30856 101.308 6.31093C101.314 6.31331 101.322 6.31364 101.329 6.31188C101.336 6.31013 101.342 6.30636 101.347 6.30104C101.352 6.29573 101.355 6.28909 101.357 6.28195L101.688 4.47057C101.691 4.45205 101.701 4.4353 101.716 4.42321C101.73 4.41112 101.749 4.40446 101.768 4.40437L104.488 4.41057C104.506 4.41057 104.524 4.41787 104.537 4.43087C104.55 4.44387 104.557 4.4615 104.557 4.47988V17.9406C104.557 17.984 104.535 18.0057 104.491 18.0057L101.763 18.0109C101.718 18.0109 101.692 17.9888 101.684 17.9447L101.361 16.1178C101.359 16.1089 101.355 16.1007 101.349 16.0941C101.343 16.0875 101.335 16.0828 101.326 16.0807C101.318 16.0786 101.308 16.0792 101.3 16.0823C101.292 16.0854 101.284 16.0909 101.279 16.0982C100.759 16.8037 99.9538 17.4182 99.1582 17.773C97.7341 18.4095 96.2338 18.5192 94.6572 18.102C90.7624 17.0726 89.0679 12.9978 89.9358 9.28609C90.7489 5.81126 93.9486 3.61712 97.4907 4.12712C99.0472 4.35126 100.314 5.07506 101.29 6.2985ZM97.1246 15.4185C98.2102 15.4166 99.2506 14.9708 100.017 14.179C100.783 13.3873 101.213 12.3146 101.211 11.1969C101.209 10.0791 100.776 9.00791 100.007 8.21889C99.2375 7.42986 98.1955 6.98766 97.1099 6.98955C96.0242 6.99144 94.9838 7.43729 94.2175 8.22899C93.4512 9.0207 93.0218 10.0934 93.0238 11.2112C93.0257 12.3289 93.4589 13.4001 94.2279 14.1892C94.997 14.9782 96.0389 15.4204 97.1246 15.4185ZM85.0045 4.17475C83.579 4.20992 82.1793 4.89785 81.5441 6.19613C81.5007 6.28647 81.4721 6.28199 81.4583 6.18268L81.2265 4.47061C81.224 4.4523 81.2149 4.43551 81.2008 4.42334C81.1868 4.41117 81.1687 4.40445 81.15 4.4044L76.0407 4.41061C76.0027 4.41061 75.9838 4.42992 75.9838 4.46854L75.9786 6.93164C75.9786 6.95382 75.987 6.97517 76.0022 6.99133C76.0174 7.00748 76.0382 7.01722 76.0603 7.01854L78.4852 7.17682C78.5224 7.17957 78.541 7.19923 78.541 7.23578L78.5358 15.1765C78.5358 15.2199 78.5141 15.243 78.4707 15.2458L76.0179 15.3989C76.0079 15.3994 75.9984 15.4038 75.9914 15.4111C75.9845 15.4184 75.9807 15.4281 75.9807 15.4382L75.9817 17.952C75.9817 17.9671 75.9876 17.9816 75.9981 17.9922C76.0085 18.0029 76.0228 18.0089 76.0376 18.0089L86.7114 18.0079C86.7226 18.0079 86.7334 18.0035 86.7414 17.9957C86.7493 17.988 86.7538 17.9774 86.7538 17.9665L86.7548 15.4672C86.7548 15.4497 86.7481 15.4329 86.7362 15.4203C86.7242 15.4078 86.7079 15.4005 86.6907 15.3999L81.9362 15.2416C81.9231 15.2411 81.9108 15.2356 81.9017 15.2264C81.8926 15.2171 81.8876 15.2048 81.8876 15.192C81.8821 13.672 81.8814 12.072 81.8855 10.392C81.8907 8.43164 83.0224 7.20992 85.0096 7.19751C85.8441 7.19199 86.7031 7.19095 87.5865 7.1944C87.6134 7.1944 87.6269 7.18095 87.6269 7.15406L87.6258 4.22751C87.6258 4.21259 87.62 4.19828 87.6096 4.18763C87.5991 4.17699 87.5849 4.17088 87.57 4.17061C86.73 4.1513 85.8748 4.15268 85.0045 4.17475Z" fill="white"/>
</g>
<defs>
<clipPath id="clip0_4132_8221">
<rect width="118.759" height="24" fill="white" transform="translate(0.620667 0.000976562)"/>
</clipPath>
</defs>
</svg>

<svg width="120" height="24" fill="none" xmlns="http://www.w3.org/2000/svg"><g clip-path="url(#a)"><path fill-rule="evenodd" clip-rule="evenodd" d="m10.568 3.02-9.807.003a.049.049 0 0 1-.046-.06L1.442.078A.049.049 0 0 1 1.49.043L13.306.042a.049.049 0 0 1 .048.037l4.464 17.87a.05.05 0 0 1-.009.041.05.05 0 0 1-.038.019h-3.667a.048.048 0 0 1-.046-.037l-.847-3.632a.049.049 0 0 0-.046-.038l-7.87.001a.048.048 0 0 0-.046.038l-.837 3.632a.049.049 0 0 1-.046.037l-3.605.002a.05.05 0 0 1-.047-.04.049.049 0 0 1 0-.021L3.906 5.326a.049.049 0 0 1 .048-.036l3.314-.005a.049.049 0 0 1 .048.06l-1.363 5.92a.048.048 0 0 0 .048.06l6.464-.002a.05.05 0 0 0 .022-.005.05.05 0 0 0 .026-.033.05.05 0 0 0 0-.022l-1.897-8.205a.049.049 0 0 0-.047-.038Zm102.82 4.244.005 5.476c0 .892.158 1.888 1.065 2.254.297.12.77.176 1.42.167.888-.012 1.768-.01 2.639.01.042 0 .063.022.063.064l-.001 2.718a.056.056 0 0 1-.014.033.048.048 0 0 1-.033.014c-1.266.013-2.531.016-3.794.009-2.925-.015-4.7-1.742-4.709-4.72a805.89 805.89 0 0 1 .005-6.023.073.073 0 0 0-.021-.05.074.074 0 0 0-.051-.022h-2.447a.052.052 0 0 1-.035-.015.049.049 0 0 1-.014-.034l.004-2.671c0-.044.022-.066.066-.066l2.461-.002c.025 0 .05-.008.07-.023a.112.112 0 0 0 .04-.062l.891-3.655c.008-.033.028-.049.061-.049l2.273.003c.038 0 .057.02.058.057l.002 3.644a.08.08 0 0 0 .025.06.083.083 0 0 0 .06.025h5.748c.009 0 .017.002.025.006.007.004.014.01.019.016a.05.05 0 0 1 .011.023.07.07 0 0 1-.001.025l-.684 2.649a.091.091 0 0 1-.089.07h-5.049c-.046 0-.069.022-.069.069Zm-87.89 9.082c0-.078.026-.088.08-.03 1.156 1.289 2.612 1.962 4.367 2.02 2.66.089 5.05-1.266 6.248-3.65 1.597-3.174.835-7.61-2.352-9.605a6.633 6.633 0 0 0-3.932-1.017c-1.859.091-3.355.84-4.49 2.245a.043.043 0 0 1-.043.014.042.042 0 0 1-.031-.034l-.332-1.802c-.01-.056-.044-.084-.102-.084l-5.276.007c-.038 0-.057.02-.057.059l-.002 2.487c0 .015.005.03.015.04.01.01.023.017.037.017l2.463.166c.011 0 .021.005.028.013a.041.041 0 0 1 .012.028v13.837c0 .05-.024.076-.075.08l-2.326.155a.057.057 0 0 0-.053.057l-.002 2.503a.065.065 0 0 0 .064.064l10.674-.009a.032.032 0 0 0 .032-.032v-2.54a.042.042 0 0 0-.01-.028.04.04 0 0 0-.028-.013l-4.85-.173a.062.062 0 0 1-.06-.063v-4.712Zm5.669-1.255a3.995 3.995 0 0 1-3.134.011 4.088 4.088 0 0 1-1.332-.909 4.224 4.224 0 0 1-.892-1.363 4.322 4.322 0 0 1-.011-3.225c.204-.512.504-.978.883-1.37.378-.393.829-.705 1.325-.918a3.994 3.994 0 0 1 3.134-.011c.497.21.95.519 1.331.909.382.39.685.853.892 1.363a4.318 4.318 0 0 1 .012 3.225 4.223 4.223 0 0 1-.883 1.37c-.379.393-.83.705-1.325.918Zm12.502 1.182c-.038-.044-.057-.037-.057.02v4.753a.073.073 0 0 0 .071.075l4.848.173c.009 0 .017.005.023.011.006.007.01.015.01.024v2.55a.035.035 0 0 1-.034.036l-10.687-.003a.057.057 0 0 1-.04-.018.06.06 0 0 1-.017-.041v-2.494a.065.065 0 0 1 .061-.066l2.369-.16a.055.055 0 0 0 .051-.055l.001-16.625c0-.031.016-.047.047-.047h2.741c.044 0 .07.022.079.066l.332 1.833a.032.032 0 0 0 .008.015.033.033 0 0 0 .033.009.033.033 0 0 0 .015-.01c1.173-1.418 2.665-2.168 4.476-2.25 1.816-.084 3.377.433 4.685 1.55 2.998 2.558 3.25 7.584.645 10.517-2.506 2.823-7.15 3.034-9.66.137Zm4.05-.855a3.996 3.996 0 0 0 1.567-.327 4.09 4.09 0 0 0 1.325-.918c.379-.392.679-.858.883-1.37a4.318 4.318 0 0 0-.012-3.225 4.222 4.222 0 0 0-.892-1.363 4.089 4.089 0 0 0-1.332-.91 3.995 3.995 0 0 0-3.133.012 4.09 4.09 0 0 0-1.325.918 4.223 4.223 0 0 0-.883 1.37 4.32 4.32 0 0 0 .011 3.225c.208.51.51.974.892 1.364.382.39.834.698 1.332.908.497.21 1.03.317 1.568.316ZM69.453 4.486 69.14 6.27c-.011.064-.038.072-.081.023a4.525 4.525 0 0 1-.135-.162 3.2 3.2 0 0 0-.193-.226c-1.315-1.343-2.948-1.954-4.901-1.833-2.88.18-5.2 2.07-6.02 4.833-.59 1.987-.396 4.363.665 6.16 1.434 2.425 4.113 3.646 6.885 3.191 1.499-.247 2.74-.973 3.722-2.177a.026.026 0 0 1 .026-.01c.005.002.01.004.013.008a.026.026 0 0 1 .006.013l.33 1.854c.007.044.033.067.079.067h2.742c.036 0 .054-.018.054-.054L72.329 4.48c0-.044-.022-.066-.066-.066l-2.714-.01a.097.097 0 0 0-.063.024.101.101 0 0 0-.034.06ZM66.47 15.092a3.996 3.996 0 0 1-3.135.011 4.089 4.089 0 0 1-1.332-.909 4.226 4.226 0 0 1-.892-1.364 4.32 4.32 0 0 1-.011-3.226c.204-.512.504-.977.883-1.37.379-.393.829-.705 1.325-.918a3.995 3.995 0 0 1 3.135-.011c.497.21.95.519 1.332.909.381.39.684.853.892 1.364a4.323 4.323 0 0 1 .011 3.226 4.223 4.223 0 0 1-.883 1.37c-.379.393-.829.705-1.325.918Zm34.82-8.794c.005.006.011.01.018.013a.036.036 0 0 0 .039-.01.045.045 0 0 0 .01-.02l.331-1.81a.077.077 0 0 1 .028-.048.081.081 0 0 1 .052-.019l2.72.007a.069.069 0 0 1 .069.07v13.46c0 .043-.022.065-.066.065l-2.728.005c-.045 0-.071-.022-.079-.066l-.323-1.827a.052.052 0 0 0-.012-.024.045.045 0 0 0-.049-.012.046.046 0 0 0-.021.016c-.52.706-1.325 1.32-2.12 1.675-1.425.637-2.925.746-4.502.329-3.895-1.03-5.59-5.104-4.721-8.816.813-3.475 4.013-5.669 7.555-5.159 1.556.224 2.823.948 3.799 2.171Zm-4.165 9.12a4.035 4.035 0 0 0 2.892-1.239 4.28 4.28 0 0 0 1.194-2.982 4.279 4.279 0 0 0-1.204-2.978 4.037 4.037 0 0 0-2.897-1.23 4.035 4.035 0 0 0-2.892 1.24 4.278 4.278 0 0 0-1.194 2.982 4.279 4.279 0 0 0 1.204 2.978 4.035 4.035 0 0 0 2.897 1.23ZM85.005 4.175c-1.426.035-2.826.723-3.46 2.021-.044.09-.073.086-.087-.013l-.231-1.712a.078.078 0 0 0-.076-.066l-5.11.006c-.038 0-.057.019-.057.058l-.005 2.463a.087.087 0 0 0 .081.087l2.425.158c.037.003.056.022.056.059l-.005 7.94c0 .044-.022.067-.065.07l-2.453.153a.04.04 0 0 0-.037.04v2.513c0 .015.007.03.017.04.01.01.025.017.04.017l10.673-.001a.043.043 0 0 0 .03-.012.041.041 0 0 0 .013-.03v-2.499a.066.066 0 0 0-.064-.067l-4.754-.158a.051.051 0 0 1-.034-.016.05.05 0 0 1-.014-.034c-.006-1.52-.007-3.12-.003-4.8.006-1.96 1.137-3.182 3.125-3.194.834-.006 1.693-.007 2.576-.004.027 0 .04-.013.04-.04V4.228a.057.057 0 0 0-.056-.057c-.84-.02-1.695-.018-2.566.004Z" fill="#fff"/></g><defs><clipPath id="a"><path fill="#fff" transform="translate(.62 .001)" d="M0 0h118.759v24H0z"/></clipPath></defs></svg>
